X: 14673
T: Gan Ainm
R: jig
M: 6/8
K: Eminor
|:e2d BAG|A2G FED|e2d BAG|~A3 ABd|
e2d BAG|A2G FED|EFG AGF|1 DEF E2e:|2 DEF E2F||
|:EFG AGF|DEF G2F|EFG AGF|DEF E2F|
EFG AGF|DEF G2F|EFG AGF|1 DEF E2F:|2 DEF E2e||

